modules/hawcons-filled/icons/icon-22-one-finger.svg

<?xml version="1.0" encoding="UTF-8" standalone="no"?>
<svg width="32px" height="32px" viewBox="0 0 32 32" version="1.1" xmlns="http://www.w3.org/2000/svg" xmlns:xlink="http://www.w3.org/1999/xlink" xmlns:sketch="http://www.bohemiancoding.com/sketch/ns">
    <!-- Generator: Sketch 3.0.3 (7891) - http://www.bohemiancoding.com/sketch -->
    <title>icon 22 one finger</title>
    <desc>Created with Sketch.</desc>
    <defs></defs>
    <g id="Page-1" stroke="none" stroke-width="1" fill="none" fill-rule="evenodd" sketch:type="MSPage">
        <g id="icon-22-one-finger" sketch:type="MSArtboardGroup" fill="#929292">
            <path d="M19.1151466,10.4908981 C19.1151466,9.66749783 18.4493494,9 17.6151466,9 C16.7867195,9 16.1151466,9.67622006 16.1151466,10.4908981 L16.1151466,12.4325233 L16.1151466,15 L15.1151466,15 L15.1151466,12.5 L15.1151466,5.50863659 C15.1151466,4.67543961 14.4493494,4 13.6151466,4 C12.7867195,4 12.1151466,4.66642015 12.1151466,5.50863659 L12.1151466,15.7983451 C10.056747,13.5979243 7.34677642,11.1791206 6.23617935,12.2957153 C5.14900956,13.3887562 7.95050863,16.4007216 11.8625221,22.9830936 C13.6251425,25.9488875 15.8554315,27.9995418 19.6151466,28 C23.7572825,28 27.1151466,24.6421358 27.1151466,20.5 L27.1151466,17.2468012 L27.1151466,12.5063976 C27.1151466,11.6744372 26.4493494,11 25.6151466,11 C24.7867195,11 24.1151466,11.6764628 24.1151466,12.5063976 L24.1151466,14.7497253 L24.1151466,15 L23.1151466,15 L23.1151466,12.6781559 L23.1151466,11.4912653 C23.1151466,10.6676622 22.4493494,10 21.6151466,10 C20.7867195,10 20.1151466,10.6625444 20.1151466,11.4912653 L20.1151466,12.5082011 L20.1151466,14 L19.1151466,14 L19.1151466,12.5082011 L19.1151466,10.4908981 Z" id="one-finger" sketch:type="MSShapeGroup"></path>
        </g>
    </g>
</svg>

<svg width="32" height="32" xmlns="http://www.w3.org/2000/svg"><path d="M19.115 10.49c0-.823-.666-1.49-1.5-1.49-.828 0-1.5.676-1.5 1.49V15h-1V5.509a1.5 1.5 0 1 0-3 0v10.29c-2.058-2.201-4.768-4.62-5.879-3.503-1.087 1.093 1.715 4.105 5.627 10.687C13.625 25.95 15.855 28 19.615 28a7.5 7.5 0 0 0 7.5-7.5v-7.993a1.5 1.5 0 1 0-3 0V15h-1V11.491c0-.823-.666-1.491-1.5-1.491-.828 0-1.5.663-1.5 1.491V14h-1v-3.509z" fill="#929292" fill-rule="evenodd"/></svg>
